src/instruments/icons/Icon/img/airflow-new.svg

<?xml version="1.0" encoding="UTF-8"?>
<svg xmlns="http://www.w3.org/2000/svg" xmlns:xlink="http://www.w3.org/1999/xlink" width="150pt" height="150pt" viewBox="0 0 150 150" version="1.1">
<g id="surface1">
<path style=" stroke:none;fill-rule:nonzero;fill:rgb(0.392157%,48.627451%,93.333333%);fill-opacity:1;" d="M 3.585938 147.804688 L 74.054688 75.574219 C 74.496094 75.121094 74.578125 74.421875 74.210938 73.90625 C 69.925781 67.921875 62.019531 66.886719 59.089844 62.867188 C 50.410156 50.960938 48.207031 44.21875 44.476562 44.636719 C 44.214844 44.667969 43.984375 44.808594 43.800781 44.996094 L 18.34375 71.089844 C 3.699219 86.101562 1.601562 119.152344 1.214844 146.828125 C 1.195312 148.078125 2.714844 148.699219 3.585938 147.804688 Z M 3.585938 147.804688 "/>
<path style=" stroke:none;fill-rule:nonzero;fill:rgb(0%,67.843137%,27.45098%);fill-opacity:1;" d="M 147.804688 146.019531 L 75.574219 75.554688 C 75.121094 75.113281 74.421875 75.027344 73.90625 75.394531 C 67.921875 79.683594 66.886719 87.589844 62.867188 90.519531 C 50.960938 99.199219 44.21875 101.402344 44.636719 105.132812 C 44.667969 105.390625 44.808594 105.625 44.996094 105.808594 L 71.089844 131.265625 C 86.101562 145.90625 119.152344 148.007812 146.828125 148.394531 C 148.078125 148.410156 148.699219 146.894531 147.804688 146.019531 Z M 147.804688 146.019531 "/>
<path style=" stroke:none;fill-rule:evenodd;fill:rgb(1.568627%,83.921569%,34.901961%);fill-opacity:1;" d="M 71.089844 131.265625 C 62.886719 123.265625 59.082031 107.4375 74.804688 74.804688 C 49.253906 86.222656 40.300781 101.230469 44.707031 105.527344 Z M 71.089844 131.265625 "/>
<path style=" stroke:none;fill-rule:nonzero;fill:rgb(0%,78.039216%,83.137255%);fill-opacity:1;" d="M 146.019531 1.804688 L 75.554688 74.035156 C 75.113281 74.488281 75.027344 75.1875 75.394531 75.703125 C 79.679688 81.6875 87.585938 82.722656 90.515625 86.742188 C 99.199219 98.648438 101.402344 105.390625 105.128906 104.972656 C 105.390625 104.945312 105.625 104.804688 105.804688 104.613281 L 131.261719 78.519531 C 145.90625 63.507812 148.007812 30.457031 148.390625 2.78125 C 148.410156 1.53125 146.890625 0.910156 146.019531 1.804688 Z M 146.019531 1.804688 "/>
<path style=" stroke:none;fill-rule:evenodd;fill:rgb(6.666667%,88.235294%,93.333333%);fill-opacity:1;" d="M 131.261719 78.519531 C 123.261719 86.71875 107.4375 90.527344 74.804688 74.804688 C 86.222656 100.351562 101.230469 109.308594 105.527344 104.902344 Z M 131.261719 78.519531 "/>
<path style=" stroke:none;fill-rule:nonzero;fill:rgb(89.411765%,22.352941%,12.941176%);fill-opacity:1;" d="M 1.800781 3.589844 L 74.035156 74.054688 C 74.488281 74.496094 75.1875 74.582031 75.703125 74.210938 C 81.683594 69.925781 82.722656 62.019531 86.742188 59.089844 C 98.648438 50.410156 105.390625 48.207031 104.972656 44.476562 C 104.941406 44.214844 104.800781 43.984375 104.613281 43.800781 L 78.519531 18.34375 C 63.507812 3.699219 30.457031 1.601562 2.78125 1.214844 C 1.53125 1.199219 0.90625 2.714844 1.800781 3.589844 Z M 1.800781 3.589844 "/>
<path style=" stroke:none;fill-rule:evenodd;fill:rgb(100%,45.882353%,34.117647%);fill-opacity:1;" d="M 78.519531 18.34375 C 86.71875 26.34375 90.523438 42.167969 74.804688 74.804688 C 100.351562 63.386719 109.304688 48.378906 104.902344 44.082031 Z M 78.519531 18.34375 "/>
<path style=" stroke:none;fill-rule:evenodd;fill:rgb(4.705882%,71.372549%,100%);fill-opacity:1;" d="M 18.34375 71.089844 C 26.34375 62.886719 42.167969 59.085938 74.804688 74.804688 C 63.386719 49.257812 48.378906 40.304688 44.082031 44.707031 Z M 18.34375 71.089844 "/>
<path style=" stroke:none;fill-rule:nonzero;fill:rgb(29.019608%,28.235294%,28.235294%);fill-opacity:1;" d="M 77.964844 74.753906 C 77.988281 76.496094 76.59375 77.925781 74.855469 77.945312 C 73.113281 77.96875 71.6875 76.574219 71.664062 74.832031 C 71.640625 73.09375 73.035156 71.664062 74.777344 71.644531 C 76.515625 71.621094 77.945312 73.015625 77.964844 74.753906 Z M 77.964844 74.753906 "/>
</g>
</svg>

<svg xmlns="http://www.w3.org/2000/svg" viewBox="0 0 150 150">
  <path fill="#017cee" d="M3.586 147.805l70.469-72.23c.441-.454.523-1.153.156-1.669-4.285-5.984-12.191-7.02-15.121-11.039-8.68-11.906-10.883-18.648-14.613-18.23a1.15 1.15 0 00-.676.36L18.344 71.09C3.699 86.102 1.602 119.152 1.214 146.828c-.019 1.25 1.5 1.871 2.372.977zm0 0"/>
  <path fill="#00ad46" d="M147.805 146.02l-72.23-70.465c-.454-.442-1.153-.528-1.669-.16-5.984 4.289-7.02 12.195-11.039 15.125-11.906 8.68-18.648 10.882-18.23 14.613.031.258.172.492.36.676l26.093 25.457c15.012 14.64 48.062 16.742 75.738 17.129 1.25.015 1.871-1.5.977-2.375zm0 0"/>
  <path fill="#04d659" fill-rule="evenodd" d="M71.09 131.266c-8.203-8-12.008-23.828 3.715-56.461C49.254 86.223 40.3 101.23 44.707 105.527zm0 0"/>
  <path fill="#00c7d4" d="M146.02 1.805l-70.465 72.23c-.442.453-.528 1.153-.16 1.668 4.285 5.984 12.19 7.02 15.12 11.04 8.684 11.905 10.887 18.648 14.614 18.23a1.1 1.1 0 00.676-.36l25.457-26.093c14.644-15.012 16.746-48.063 17.129-75.739.02-1.25-1.5-1.87-2.371-.976zm0 0"/>
  <path fill="#11e1ee" fill-rule="evenodd" d="M131.262 78.52c-8 8.199-23.825 12.007-56.457-3.715 11.418 25.547 26.425 34.504 30.722 30.097zm0 0"/>
  <path fill="#e43921" d="M1.8 3.59l72.235 70.465c.453.441 1.153.527 1.668.156 5.98-4.285 7.02-12.191 11.04-15.121 11.905-8.68 18.648-10.883 18.23-14.613a1.15 1.15 0 00-.36-.676L78.52 18.344C63.508 3.699 30.457 1.602 2.78 1.214c-1.25-.015-1.875 1.5-.98 2.376zm0 0"/>
  <path fill="#ff7557" fill-rule="evenodd" d="M78.52 18.344c8.199 8 12.003 23.824-3.715 56.46 25.547-11.417 34.5-26.425 30.097-30.722zm0 0"/>
  <path fill="#0cb6ff" fill-rule="evenodd" d="M18.344 71.09c8-8.203 23.824-12.004 56.46 3.715-11.417-25.547-26.425-34.5-30.722-30.098zm0 0"/>
  <path fill="#4a4848" d="M77.965 74.754a3.151 3.151 0 11-6.3.081 3.151 3.151 0 016.3-.081zm0 0"/>
</svg>
